packages/assets/application-icons/19.Code.svg

<?xml version="1.0" encoding="UTF-8"?>
<svg width="24px" height="24px" viewBox="0 0 24 24" version="1.1" xmlns="http://www.w3.org/2000/svg" xmlns:xlink="http://www.w3.org/1999/xlink">
    <title>19.Code</title>
    <g id="Page-1" stroke="none" stroke-width="1" fill="none" fill-rule="evenodd">
        <g id="Artboard" transform="translate(-66.000000, -203.000000)" fill="#000000" fill-rule="nonzero">
            <g id="19.Code" transform="translate(66.000000, 203.000000)">
                <path d="M13.89,5.01724415 C14.43,5.19724415 14.7,5.64724415 14.7,6.18724415 L11.28,18.7872442 C11.1,19.1472442 10.74,19.4172442 10.38,19.4172442 L10.11,19.4172442 C9.57,19.2372442 9.3,18.7872442 9.39,18.2472442 L12.81,5.64724415 C12.9,5.19724415 13.44,4.92724415 13.89,5.01724415 Z M17.13,7.98724415 L20.73,11.5872442 C21.09,11.9472442 21.09,12.4872442 20.73,12.8472442 L17.13,16.4472442 C16.95,16.6272442 16.68,16.7172442 16.5,16.7172442 C16.32,16.7172442 16.05,16.6272442 15.87,16.4472442 C15.51,16.0872442 15.51,15.5472442 15.87,15.1872442 L18.84,12.2172442 L15.87,9.24724415 C15.51,8.88724415 15.51,8.34724415 15.87,7.98724415 C16.23,7.62724415 16.77,7.62724415 17.13,7.98724415 Z M8.13,7.98724415 C8.49,8.34724415 8.49,8.88724415 8.13,9.24724415 L5.16,12.2172442 L8.13,15.1872442 C8.49,15.5472442 8.49,16.0872442 8.13,16.4472442 C7.95,16.6272442 7.77,16.7172442 7.5,16.7172442 C7.23,16.7172442 7.05,16.6272442 6.87,16.4472442 L3.27,12.8472442 C2.91,12.4872442 2.91,11.9472442 3.27,11.5872442 L6.87,7.98724415 C7.23,7.62724415 7.77,7.62724415 8.13,7.98724415 Z" id="Code"></path>
            </g>
        </g>
    </g>
</svg>

<svg width="24" height="24" viewBox="0 0 24 24" xmlns="http://www.w3.org/2000/svg"><path d="M13.89 5.017c.54.18.81.63.81 1.17l-3.42 12.6c-.18.36-.54.63-.9.63h-.27c-.54-.18-.81-.63-.72-1.17l3.42-12.6c.09-.45.63-.72 1.08-.63Zm3.24 2.97 3.6 3.6c.36.36.36.9 0 1.26l-3.6 3.6c-.18.18-.45.27-.63.27s-.45-.09-.63-.27a.87.87 0 0 1 0-1.26l2.97-2.97-2.97-2.97a.87.87 0 0 1 0-1.26.87.87 0 0 1 1.26 0Zm-9 0c.36.36.36.9 0 1.26l-2.97 2.97 2.97 2.97c.36.36.36.9 0 1.26-.18.18-.36.27-.63.27s-.45-.09-.63-.27l-3.6-3.6a.87.87 0 0 1 0-1.26l3.6-3.6a.87.87 0 0 1 1.26 0Z" fill="#000" fill-rule="nonzero"/></svg>
